X: 595
T: Ting fang
L: 1/8
M: 4/4
K: A
E2E F E F [I:setbarnb 1]| 
E2>F2E4 | 
B e c BA4 | 
ee2c B c A F | 
E2>F2E4 | 
E2E CB,2B,2 | 
B e c BA4 | 
e e e c B e A F | 
E2>F2E4 | 
E2E CB,2E B, | 
B c A BE2F E | 
CC2E C E C A, | 
B,2>C2B,4 | 
B e c BA4 | 
ee2c B e A F | 
E2>F2E4 |]

@@@ Tune index: 9469
